web/ui/src/assets/svgs/node-library/loading.svg

<svg height="16" viewBox="0 0 16 16" width="16" xmlns="http://www.w3.org/2000/svg"><g fill="none" fill-rule="evenodd" transform="translate(-1008 -679)"><path d="m0 0h1920v1080h-1920z" fill="#eff4f9" transform="matrix(-1 0 0 1 1920 0)"/><path d="m160 140h1600v918h-1600z" fill="#fff"/><g fill-rule="nonzero" transform="translate(1008 679)"><path d="m0 0h16v16h-16z" fill="#000" opacity="0"/><path d="m12.1633077 5.2830894c.1427477-.17129186.1427477-.39968545 0-.57097731-.1427477-.17129185-.3996721-.14273429-.5709639 0-.1427477.14274767-.1427477.39968545 0 .54243313.1427343.19983603.3996721.19983603.5709639.02854418zm1.199043 2.76921384c-.3140261 0-.5709639.25693778-.5709639.5709773 0 .31403953.2569378.54241974.5709639.54241974s.5709773-.25693778.5709773-.54241974c0-.34258371-.2569378-.5709773-.5709773-.5709773zm-1.9412988 3.59712896c-.2854953.2854953-.2569377.7422691.0285442.9992069.285482.2569378.7422692.2569378.999207-.0285442.2569377-.2854819.2569377-.7422691-.0285576-.9992069-.285482-.285482-.7137116-.2569378-.9991936.0285442zm-3.14035507 1.1704988c-.48533137 0-.88500344.3996854-.88500344.8850034s.39967207.8564593.88500344.8564593c.48533138 0 .88500345-.3996721.88500345-.8850035s-.39967207-.8564592-.88500345-.8564592zm-4.33939808-1.3417907c-.39967207.3996855-.39967207 1.0563087 0 1.4559808.39967207.399672 1.05630869.3996854 1.45598076 0 .39968545-.3996721.39968545-1.0562953 0-1.4559808-.39967207-.4282296-1.02775112-.4282296-1.45598076 0zm.4567872-2.85485976c0-.65662323-.54243313-1.19904297-1.19904298-1.19904297-.65662323 0-1.19904297.54241974-1.19904297 1.19904297s.54241974 1.19904298 1.19904297 1.19904298c.65660985-.02854419 1.19904298-.54241975 1.19904298-1.19904298 0-.02854418 0-.02854418 0 0zm-.68516741-4.5677783c-.51387557.51387556-.51387557 1.37033483 0 1.88421039.51387556.51387556 1.37033482.51387556 1.91275457 0 .51387556-.51387556.51387556-1.37033483 0-1.91276795-.51387557-.51387556-1.37033483-.51387556-1.91275457.02855756zm4.56777829-2.05550224c-.82791508 0-1.5130825.68516741-1.5130825 1.51306912 0 .8279017.68516742 1.5130825 1.5130825 1.5130825.82791509 0 1.5130825-.68516742 1.5130825-1.5130825 0-.82791509-.68516741-1.51306912-1.5130825-1.51306912z" fill="#7b8c9c"/></g></g></svg>

<?xml version="1.0" encoding="UTF-8"?>
<svg width="16px" height="16px" viewBox="0 0 16 16" version="1.1" xmlns="http://www.w3.org/2000/svg" xmlns:xlink="http://www.w3.org/1999/xlink">
    <title>加载loadding</title>
    <g id="页面-1" stroke="none" stroke-width="1" fill="none" fill-rule="evenodd">
        <g id="建木自动化-节点库详情" transform="translate(-1008.000000, -679.000000)">
            <rect id="矩形备份-4" fill="#EFF4F9" transform="translate(960.000000, 540.000000) scale(-1, 1) translate(-960.000000, -540.000000) " x="0" y="0" width="1920" height="1080"></rect>
            <rect id="矩形备份-15" fill="#FFFFFF" x="160" y="140" width="1600" height="918"></rect>
            <g id="加载loadding" transform="translate(1008.000000, 679.000000)" fill-rule="nonzero">
                <rect id="矩形" fill="#000000" opacity="0" x="0" y="0" width="16" height="16"></rect>
                <path d="M12.1633077,5.2830894 C12.3060554,5.11179754 12.3060554,4.88340395 12.1633077,4.71211209 C12.02056,4.54082024 11.7636356,4.5693778 11.5923438,4.71211209 C11.4495961,4.85485976 11.4495961,5.11179754 11.5923438,5.25454522 C11.7350781,5.45438125 11.9920159,5.45438125 12.1633077,5.2830894 Z M13.3623507,8.05230324 C13.0483246,8.05230324 12.7913868,8.30924102 12.7913868,8.62328054 C12.7913868,8.93732007 13.0483246,9.16570028 13.3623507,9.16570028 C13.6763768,9.16570028 13.933328,8.9087625 13.933328,8.62328054 C13.933328,8.28069683 13.6763902,8.05230324 13.3623507,8.05230324 L13.3623507,8.05230324 Z M11.4210519,11.6494322 C11.1355566,11.9349275 11.1641142,12.3917013 11.4495961,12.6486391 C11.7350781,12.9055769 12.1918653,12.9055769 12.4488031,12.6200949 C12.7057408,12.334613 12.7057408,11.8778258 12.4202455,11.620888 C12.1347635,11.335406 11.7065339,11.3639502 11.4210519,11.6494322 Z M8.28069683,12.819931 C7.79536546,12.819931 7.39569339,13.2196164 7.39569339,13.7049344 C7.39569339,14.1902524 7.79536546,14.5613937 8.28069683,14.5613937 C8.76602821,14.5613937 9.16570028,14.1617216 9.16570028,13.6763902 C9.16570028,13.1910588 8.76602821,12.819931 8.28069683,12.819931 Z M3.94129875,11.4781403 C3.54162668,11.8778258 3.54162668,12.534449 3.94129875,12.9341211 C4.34097082,13.3337931 4.99760744,13.3338065 5.39727951,12.9341211 C5.79696496,12.534449 5.79696496,11.8778258 5.39727951,11.4781403 C4.99760744,11.0499107 4.36952839,11.0499107 3.94129875,11.4781403 Z M4.39808595,8.62328054 C4.39808595,7.96665731 3.85565282,7.42423757 3.19904297,7.42423757 C2.54241974,7.42423757 2,7.96665731 2,8.62328054 C2,9.27990377 2.54241974,9.82232352 3.19904297,9.82232352 C3.85565282,9.79377933 4.39808595,9.27990377 4.39808595,8.62328054 C4.39808595,8.59473636 4.39808595,8.59473636 4.39808595,8.62328054 Z M3.71291854,4.05550224 C3.19904297,4.5693778 3.19904297,5.42583707 3.71291854,5.93971263 C4.2267941,6.45358819 5.08325336,6.45358819 5.62567311,5.93971263 C6.13954867,5.42583707 6.13954867,4.5693778 5.62567311,4.02694468 C5.11179754,3.51306912 4.25533828,3.51306912 3.71291854,4.05550224 Z M8.28069683,2 C7.45278175,2 6.76761433,2.68516741 6.76761433,3.51306912 C6.76761433,4.34097082 7.45278175,5.02615162 8.28069683,5.02615162 C9.10861192,5.02615162 9.79377933,4.3409842 9.79377933,3.51306912 C9.79377933,2.68515403 9.10861192,2 8.28069683,2 Z" id="形状" fill="#7B8C9C"></path>
            </g>
        </g>
    </g>
</svg>
